X:11
T:The Connaughtman's Rambles
M:6/8
Q:3/8=120
R:jig
K:Bm
G|"D"FAA dAA|"G"BAB dAG|"D"FAA dfe|"Bm"dBB BAG|
"D"FAA dAA|"G"BAB "D"def|"Em"gfe dfe|"Bm"dBB B2:|
|:e|"D"fbb faa|"D"fef d2e|"Bm"fbb faa|"D"fed "A"ede|
"D"fbb faa|"D"fef def|"Em"gfe dfe|"Bm"dBB B2:|
